public/images/icons/chart.svg

<svg width="32" height="32" viewBox="0 0 32 32" fill="none" xmlns="http://www.w3.org/2000/svg">
<g clip-path="url(#clip0_16607_16)">
<path fill-rule="evenodd" clip-rule="evenodd" d="M28.25 0.75C29.9069 0.75 31.25 2.09315 31.25 3.75V28.25C31.25 29.9069 29.9069 31.25 28.25 31.25H3.75C2.09315 31.25 0.75 29.9069 0.75 28.25V3.75C0.75 2.09315 2.09315 0.75 3.75 0.75H28.25ZM8.5 17.7109C7.55076 17.7109 6.78125 18.4804 6.78125 19.4297V22.5234C6.78125 23.4727 7.55076 24.2422 8.5 24.2422C9.44924 24.2422 10.2188 23.4727 10.2188 22.5234V19.4297C10.2187 18.4804 9.44924 17.7109 8.5 17.7109Z" fill="#9394A0" fill-opacity="0.15" stroke="#9394A0" stroke-width="1.5" stroke-linecap="round" stroke-linejoin="round"/>
<path d="M14.2812 22.5234V13.4453C14.2812 12.4961 15.0508 11.7266 16 11.7266C16.9492 11.7266 17.7188 12.4961 17.7188 13.4453V22.5234C17.7188 23.4727 16.9492 24.2422 16 24.2422C15.0508 24.2422 14.2812 23.4727 14.2812 22.5234Z" stroke="#9394A0" stroke-width="1.5" stroke-linecap="round" stroke-linejoin="round"/>
<path d="M21.7812 22.5234V9.47656C21.7812 8.52732 22.5508 7.75781 23.5 7.75781C24.4492 7.75781 25.2188 8.52732 25.2188 9.47656V22.5234C25.2188 23.4727 24.4492 24.2422 23.5 24.2422C22.5508 24.2422 21.7812 23.4727 21.7812 22.5234Z" stroke="#9394A0" stroke-width="1.5" stroke-linecap="round" stroke-linejoin="round"/>
</g>
<defs>
<clipPath id="clip0_16607_16">
<rect width="32" height="32" fill="white"/>
</clipPath>
</defs>
</svg>

<svg xmlns="http://www.w3.org/2000/svg" width="32" height="32" fill="none"><g stroke="#9394a0" stroke-linecap="round" stroke-linejoin="round" stroke-width="1.5" clip-path="url(#a)"><path fill="#9394a0" fill-opacity=".15" fill-rule="evenodd" d="M28.25.75a3 3 0 0 1 3 3v24.5a3 3 0 0 1-3 3H3.75a3 3 0 0 1-3-3V3.75a3 3 0 0 1 3-3zM8.5 17.71c-.95 0-1.719.77-1.719 1.72v3.093a1.719 1.719 0 1 0 3.438 0V19.43c0-.95-.77-1.72-1.719-1.72" clip-rule="evenodd"/><path d="M14.281 22.523v-9.078a1.719 1.719 0 0 1 3.438 0v9.078a1.719 1.719 0 0 1-3.438 0m7.5 0V9.477a1.719 1.719 0 0 1 3.438 0v13.046a1.719 1.719 0 0 1-3.438 0"/></g><defs><clipPath id="a"><path fill="#fff" d="M0 0h32v32H0z"/></clipPath></defs></svg>
